dist/icons/social/untappd.svg

<svg viewBox="0 0 30 30" xmlns="http://www.w3.org/2000/svg">
<path d="M18.8732 2.58597C15.2269 10.6605 15.0076 10.2772 14.8568 11.3212L14.6192 12.9755C14.5324 13.5807 14.3177 14.1607 13.9932 14.66L7.18956 25.1403C6.8423 25.6749 6.25743 25.9573 5.66342 25.8766C3.822 25.6245 2.10851 24.2526 1.30889 22.4219C1.04844 21.8267 1.10327 21.1207 1.45053 20.5861L8.25421 10.1007C8.57863 9.60141 9.00357 9.19289 9.49705 8.90542L10.8359 8.12368C11.6812 7.62942 11.2791 7.52351 17.0318 1.11832C17.0775 0.876236 17.0775 0.75015 17.1963 0.714845C17.3334 0.679541 17.4979 0.664411 17.4842 0.482846L17.4659 0.250847C17.4568 0.155022 17.5253 0.0692831 17.6121 0.0692831C17.8177 0.0642396 18.2153 0.129805 18.7818 0.573629C19.3439 1.0225 19.5312 1.42093 19.5906 1.6378C19.618 1.72858 19.5632 1.82441 19.481 1.84962L19.2753 1.9051C19.12 1.95049 19.1611 2.12701 19.1702 2.27832C19.1748 2.41953 19.0651 2.45988 18.8732 2.58597ZM11.0506 1.9051C11.206 1.95049 11.1648 2.12701 11.1557 2.27832C11.1466 2.41449 11.2517 2.45484 11.4481 2.58092C11.8091 3.38283 12.1472 4.11918 12.4625 4.80004C12.4945 4.86561 12.5676 4.8757 12.6133 4.82526C13.1251 4.22005 13.7374 3.50388 14.4639 2.67675C14.5233 2.60614 14.5278 2.50023 14.4684 2.42962C14.1029 2.01606 13.7145 1.57728 13.2987 1.11328C13.253 0.876236 13.253 0.745106 13.1342 0.709802C12.9971 0.669454 12.8326 0.659367 12.8463 0.477803C12.8601 0.311369 12.9103 0.0692831 12.7184 0.0642396C12.5128 0.0591962 12.1153 0.119718 11.5487 0.568585C10.9866 1.01745 10.7993 1.41589 10.7399 1.63275C10.6759 1.84458 10.9044 1.86475 11.0506 1.9051ZM28.8663 20.581L22.0672 10.0957C21.464 9.16263 20.8517 8.9155 19.4901 8.12368C18.9783 7.82612 18.8412 7.57394 18.0965 6.66612C18.0508 6.61064 17.9639 6.62073 17.932 6.69134C15.8164 11.1699 15.7798 10.8673 15.693 11.4725C15.6153 12.0122 15.6336 12.4812 15.7067 12.9755C15.7935 13.5807 16.0083 14.1607 16.3327 14.66L23.1364 25.1453C23.4836 25.6799 24.0594 25.9624 24.6488 25.8867C26.4902 25.6396 28.2129 24.2728 29.0216 22.4269C29.2684 21.8267 29.2181 21.1207 28.8663 20.581Z"/>
</svg>

<svg viewBox="0 0 30 30" xmlns="http://www.w3.org/2000/svg"><path d="M18.873 2.586c-3.646 8.075-3.865 7.691-4.016 8.735l-.238 1.655a4.194 4.194 0 01-.626 1.684L7.19 25.14c-.348.535-.933.817-1.527.737-1.841-.252-3.554-1.624-4.354-3.455a1.965 1.965 0 01.142-1.836l6.803-10.485c.325-.5.75-.908 1.243-1.196l1.339-.781c.845-.495.443-.6 6.196-7.006.046-.242.046-.368.164-.403.137-.035.302-.05.288-.232L17.466.25c-.01-.096.06-.182.146-.182.206-.005.603.06 1.17.505.562.449.75.847.809 1.064a.173.173 0 01-.11.212l-.206.055c-.155.045-.114.222-.105.373.005.142-.105.182-.297.308zm-7.822-.68c.155.044.114.221.105.372-.01.136.096.177.292.303.361.802.7 1.538 1.014 2.219.033.066.106.076.151.025.512-.605 1.124-1.321 1.85-2.148a.194.194 0 00.005-.247c-.365-.414-.754-.853-1.17-1.317-.045-.237-.045-.368-.164-.403-.137-.04-.301-.05-.288-.232.014-.167.064-.409-.128-.414-.205-.005-.603.056-1.17.505-.561.448-.749.847-.808 1.064-.064.212.164.232.31.272zM28.866 20.58l-6.799-10.485c-.603-.933-1.215-1.18-2.577-1.972-.512-.298-.649-.55-1.393-1.458a.097.097 0 00-.165.025c-2.116 4.479-2.152 4.176-2.239 4.782a4.96 4.96 0 00.014 1.502 4.17 4.17 0 00.626 1.685l6.803 10.485c.348.535.923.817 1.513.742 1.841-.247 3.564-1.614 4.373-3.46.246-.6.196-1.306-.156-1.846z"/></svg>
